icons/netflix-icon.svg

<?xml version="1.0" encoding="UTF-8"?>
<svg width="256px" height="256px" viewBox="0 0 256 256" version="1.1" xmlns="http://www.w3.org/2000/svg" xmlns:xlink="http://www.w3.org/1999/xlink" preserveAspectRatio="xMidYMid">
    <defs>
        <radialGradient cx="48.3397178%" cy="49.4186213%" fx="48.3397178%" fy="49.4186213%" r="70.4380887%" gradientTransform="translate(0.483397,0.494186),scale(1.000000,0.550875),translate(-0.483397,-0.494186)" id="radialGradient-1">
            <stop stop-color="#000000" offset="0%"></stop>
            <stop stop-color="#000000" stop-opacity="0" offset="100%"></stop>
        </radialGradient>
    </defs>
		<g>
				<polygon fill="#000000" fill-rule="nonzero" points="1.80114185e-07 1.13710799e-06 255.904254 1.13710799e-06 255.904254 255.904255 1.80114171e-07 255.904255"></polygon>
				<path d="M141.676338,41.2746569 L141.608906,79.6360396 L141.541118,117.997421 L138.385008,109.0921 C138.383912,109.089031 138.380021,109.077687 138.378943,109.074618 L134.30055,194.477217 C138.310388,205.800934 140.458766,211.845937 140.482897,211.870064 C140.51447,211.901649 142.799605,212.039499 145.561,212.176541 C153.927405,212.591702 164.29504,213.481319 172.159936,214.45853 C173.98096,214.684771 175.548152,214.800631 175.642501,214.716128 C175.736852,214.631624 175.788229,175.572658 175.756672,127.918505 L175.69923,41.2746569 L158.687784,41.2746569 L141.676338,41.2746569 Z" stroke="#000000" stroke-width="2.9562209" fill="#B1060F"></path>
				<path d="M80.1382878,41.1604861 L80.1382878,127.892104 C80.1382878,175.594555 80.1849645,214.670743 80.242112,214.727902 C80.2992558,214.785042 83.2534257,214.50614 86.8069318,214.108168 C90.3604343,213.710178 95.2716247,213.215292 97.7205879,213.008561 C101.476527,212.691477 112.690651,211.970454 113.989212,211.962472 C114.366954,211.960097 114.391182,210.011234 114.445895,175.226595 L114.503693,138.493217 L117.217033,146.170131 C117.636362,147.356673 117.767894,147.727198 118.176424,148.883116 L122.253748,63.5015679 C121.389836,61.0590106 121.842711,62.3412234 120.852658,59.5419824 C117.521259,50.1228923 114.694332,42.1337874 114.570412,41.7884254 L114.344924,41.1604861 L97.2417849,41.1604861 L80.1382878,41.1604861 Z" stroke="#000000" stroke-width="2.9562209" fill="#B1060F"></path>
				<path d="M80.1382787,41.1604861 L80.1382878,89.8454048 L114.434478,180.820963 C114.438058,178.736175 114.44215,177.609688 114.445895,175.226595 L114.503693,138.493217 L117.217033,146.170131 C132.320656,188.907688 140.435174,211.82235 140.482897,211.870064 C140.51447,211.901649 142.799605,212.039499 145.561,212.176541 C153.927405,212.591702 164.29504,213.481319 172.159936,214.45853 C173.98096,214.684771 175.548152,214.800631 175.642501,214.716128 C175.70735,214.658045 175.749683,195.506553 175.760954,168.489092 L141.625319,70.3489604 L141.608897,79.6360396 L141.541109,117.997421 L138.384999,109.0921 C135.301137,100.390624 133.24206,94.5714036 120.852649,59.5419824 C117.52125,50.1228923 114.694323,42.1337874 114.570403,41.7884254 L114.344915,41.1604861 L97.2417758,41.1604861 L80.1382787,41.1604861 Z" fill="url(#radialGradient-1)"></path>
				<path d="M80.1390021,41.160477 L114.503693,138.537458 L114.503693,138.493217 L117.217033,146.170131 C132.320656,188.907688 140.435174,211.82235 140.482897,211.870064 C140.51447,211.901649 142.799605,212.039499 145.561,212.176541 C153.927405,212.591702 164.29504,213.481319 172.159936,214.45853 C173.971627,214.683611 175.530793,214.799226 175.639648,214.717197 L141.541118,117.979583 L141.541118,117.997412 L138.385008,109.092091 C135.301146,100.390615 133.242069,94.5713945 120.852658,59.5419732 C117.521259,50.1228832 114.694332,42.1337783 114.570412,41.7884163 L114.344924,41.160477 L97.2417849,41.160477 L80.1390021,41.160477 Z" fill="#E50914"></path>
				<path d="M141.676338,41.2746569 L141.608906,79.6360396 L141.541118,117.997421 L138.385008,109.0921 C138.383912,109.089031 138.380021,109.077687 138.378943,109.074618 L134.30055,194.477217 C138.310388,205.800934 140.458766,211.845937 140.482897,211.870064 C140.51447,211.901649 142.799605,212.039499 145.561,212.176541 C153.927405,212.591702 164.29504,213.481319 172.159936,214.45853 C173.98096,214.684771 175.548152,214.800631 175.642501,214.716128 C175.736852,214.631624 175.788229,175.572658 175.756672,127.918505 L175.69923,41.2746569 L158.687784,41.2746569 L141.676338,41.2746569 Z" stroke="#000000" stroke-width="2.9562209" fill="#B1060F"></path>
				<path d="M80.1382878,41.1604861 L80.1382878,127.892104 C80.1382878,175.594555 80.1849645,214.670743 80.242112,214.727902 C80.2992558,214.785042 83.2534257,214.50614 86.8069318,214.108168 C90.3604343,213.710178 95.2716247,213.215292 97.7205879,213.008561 C101.476527,212.691477 112.690651,211.970454 113.989212,211.962472 C114.366954,211.960097 114.391182,210.011234 114.445895,175.226595 L114.503693,138.493217 L117.217033,146.170131 C117.636362,147.356673 117.767894,147.727198 118.176424,148.883116 L122.253748,63.5015679 C121.389836,61.0590106 121.842711,62.3412234 120.852658,59.5419824 C117.521259,50.1228923 114.694332,42.1337874 114.570412,41.7884254 L114.344924,41.1604861 L97.2417849,41.1604861 L80.1382878,41.1604861 Z" stroke="#000000" stroke-width="2.9562209" fill="#B1060F"></path>
				<path d="M80.1382787,41.1604861 L80.1382878,89.8454048 L114.434478,180.820963 C114.438058,178.736175 114.44215,177.609688 114.445895,175.226595 L114.503693,138.493217 L117.217033,146.170131 C132.320656,188.907688 140.435174,211.82235 140.482897,211.870064 C140.51447,211.901649 142.799605,212.039499 145.561,212.176541 C153.927405,212.591702 164.29504,213.481319 172.159936,214.45853 C173.98096,214.684771 175.548152,214.800631 175.642501,214.716128 C175.70735,214.658045 175.749683,195.506553 175.760954,168.489092 L141.625319,70.3489604 L141.608897,79.6360396 L141.541109,117.997421 L138.384999,109.0921 C135.301137,100.390624 133.24206,94.5714036 120.852649,59.5419824 C117.52125,50.1228923 114.694323,42.1337874 114.570403,41.7884254 L114.344915,41.1604861 L97.2417758,41.1604861 L80.1382787,41.1604861 Z" fill="url(#radialGradient-1)"></path>
				<path d="M80.1390021,41.160477 L114.503693,138.537458 L114.503693,138.493217 L117.217033,146.170131 C132.320656,188.907688 140.435174,211.82235 140.482897,211.870064 C140.51447,211.901649 142.799605,212.039499 145.561,212.176541 C153.927405,212.591702 164.29504,213.481319 172.159936,214.45853 C173.971627,214.683611 175.530793,214.799226 175.639648,214.717197 L141.541118,117.979583 L141.541118,117.997412 L138.385008,109.092091 C135.301146,100.390615 133.242069,94.5713945 120.852658,59.5419732 C117.521259,50.1228832 114.694332,42.1337783 114.570412,41.7884163 L114.344924,41.160477 L97.2417849,41.160477 L80.1390021,41.160477 Z" fill="#E50914"></path>
		</g>
</svg>

<svg xmlns="http://www.w3.org/2000/svg" xmlns:xlink="http://www.w3.org/1999/xlink" viewBox="0 0 255.904 255.904">
  <defs>
    <radialGradient id="a" cx=".483" cy=".494" r=".704" fx=".483" fy=".494" gradientTransform="matrix(1 0 0 .55088 0 .222)">
      <stop offset="0%"/>
      <stop offset="100%" stop-opacity="0"/>
    </radialGradient>
    <radialGradient id="b" cx="170.251" cy="94.218" r="90.749" fx="170.251" fy="94.218" gradientTransform="scale(.7422 1.34733)" gradientUnits="userSpaceOnUse" xlink:href="#a"/>
    <radialGradient id="c" cx="170.251" cy="94.218" r="90.749" fx="170.251" fy="94.218" gradientTransform="scale(.7422 1.34733)" gradientUnits="userSpaceOnUse" xlink:href="#a"/>
  </defs>
  <path d="M255.904 255.904H0V0h255.904z"/>
  <path fill="#b1060f" stroke="#000" stroke-width="2.956" d="m141.676 41.275-.067 38.361-.068 38.361-3.156-8.905-.006-.017-4.078 85.402c4.01 11.324 6.158 17.369 6.182 17.393.032.032 2.317.17 5.078.307 8.366.415 18.734 1.304 26.599 2.282 1.821.226 3.388.342 3.483.257.094-.084.145-39.143.114-86.798l-.058-86.643h-17.011zM80.138 41.16v86.732c0 47.703.047 86.779.104 86.836.057.057 3.011-.222 6.565-.62 3.553-.398 8.465-.893 10.914-1.1 3.756-.317 14.97-1.038 16.268-1.046.378-.002.402-1.95.457-36.735l.058-36.734 2.713 7.677.96 2.713 4.077-85.381-1.401-3.96c-3.332-9.42-6.159-17.408-6.283-17.754l-.225-.628H97.242z"/>
  <path fill="url(#a)" d="M80.138 41.16v48.685l34.296 90.976c.004-2.085.008-3.211.012-5.594l.058-36.734 2.713 7.677c15.104 42.738 23.218 65.652 23.266 65.7.031.032 2.317.17 5.078.307 8.366.415 18.734 1.304 26.599 2.282 1.821.226 3.388.342 3.482.257.065-.058.108-19.21.119-46.227l-34.136-98.14-.016 9.287-.068 38.361-3.156-8.905a81499.4 81499.4 0 0 1-17.532-49.55c-3.332-9.42-6.159-17.408-6.283-17.754l-.225-.628H97.242z" style="fill:url(#b)"/>
  <path fill="#e50914" d="m80.139 41.16 34.365 97.377v-.044l2.713 7.677c15.104 42.738 23.218 65.652 23.266 65.7.031.032 2.317.17 5.078.307 8.366.415 18.734 1.304 26.599 2.282 1.812.225 3.37.34 3.48.258L141.54 117.98v.017l-3.156-8.905c-3.084-8.701-5.143-14.52-17.532-49.55-3.332-9.42-6.159-17.408-6.283-17.754l-.225-.628H97.242z"/>
  <path fill="#b1060f" stroke="#000" stroke-width="2.956" d="m141.676 41.275-.067 38.361-.068 38.361-3.156-8.905-.006-.017-4.078 85.402c4.01 11.324 6.158 17.369 6.182 17.393.032.032 2.317.17 5.078.307 8.366.415 18.734 1.304 26.599 2.282 1.821.226 3.388.342 3.483.257.094-.084.145-39.143.114-86.798l-.058-86.643h-17.011zM80.138 41.16v86.732c0 47.703.047 86.779.104 86.836.057.057 3.011-.222 6.565-.62 3.553-.398 8.465-.893 10.914-1.1 3.756-.317 14.97-1.038 16.268-1.046.378-.002.402-1.95.457-36.735l.058-36.734 2.713 7.677.96 2.713 4.077-85.381-1.401-3.96c-3.332-9.42-6.159-17.408-6.283-17.754l-.225-.628H97.242z"/>
  <path fill="url(#a)" d="M80.138 41.16v48.685l34.296 90.976c.004-2.085.008-3.211.012-5.594l.058-36.734 2.713 7.677c15.104 42.738 23.218 65.652 23.266 65.7.031.032 2.317.17 5.078.307 8.366.415 18.734 1.304 26.599 2.282 1.821.226 3.388.342 3.482.257.065-.058.108-19.21.119-46.227l-34.136-98.14-.016 9.287-.068 38.361-3.156-8.905a81499.4 81499.4 0 0 1-17.532-49.55c-3.332-9.42-6.159-17.408-6.283-17.754l-.225-.628H97.242z" style="fill:url(#c)"/>
  <path fill="#e50914" d="m80.139 41.16 34.365 97.377v-.044l2.713 7.677c15.104 42.738 23.218 65.652 23.266 65.7.031.032 2.317.17 5.078.307 8.366.415 18.734 1.304 26.599 2.282 1.812.225 3.37.34 3.48.258L141.54 117.98v.017l-3.156-8.905c-3.084-8.701-5.143-14.52-17.532-49.55-3.332-9.42-6.159-17.408-6.283-17.754l-.225-.628H97.242z"/>
</svg>
